X: 17416
T: Highland Boat Song
R: waltz
M: 3/4
K: Aminor
E2|A3 BA2|c4 d2|e4 de|a3g3|e3 dc2|B2A2G2|E4:|
e2|ga3e2|e3 de2|ga3g2|e6|a3ba2|e3 de2|a3ba2|e3dcB|
A3BA2|c4d2|e3 d2e|a4 g2|e3dc2|B3 c2B|A3G3|A6||

